X: 3497
T: Biddy Early
R: hornpipe
M: 4/4
K: Adorian
|:AB|c2cB cdeg|dedB GABd|cAAA ecAc|dcBA GABd|
c2cA cdeg|dedB GABd|cBAg edcB|c2A2 A2:|
|:ef|gfga gedc|BcdB GABd|agab agea|gede cdef|
geaf gedB|cBAB cdea|gfge dfed|c2A2 A2:|

